X:625
T:Que cundo quies que vaya  vete (CT 189)
C:Tradicional
S:Msica Tradicional Asturiana, (C) Tello & Tito. Asturies, 2001.
S:http://pagina.de/MusTradAst <telloytito@asturies.org>
N:Cancin de empleo indeterminado, transcrita en Llamo, ayuntamiento de Riosa.
A:Asturies
O:Llamo (Riosa)
Z:Cancioneru de Torner 189
M:3/8
L:1/8
Q:3/8=80
K:G
|GcB|A G2|AFG|A G2-|G2 z|
GBB|ccB|A G2|GBB|ccB|d d2|
ddd|ddc|d B2|c2 A|B G2|A2 F|A G2|
GcB|A G2|AFG|A G2-|G2 z||
W:-Que cundo quieres que vaya a verte
W:-Ven a verme, ven a verme,
W:ven a verme, dueo mo;
W:tengo la puerta trancada
W:con una rama d'olivo.
W:-Que cundo quieres que vaya a verte
W:
